build/img/comfort-sleep.svg

<svg width="88" height="88" viewBox="0 0 88 88" fill="none" xmlns="http://www.w3.org/2000/svg">
<path d="M80.6369 44.0001C80.6369 41.3832 80.4152 38.7662 80.3708 36.1493C80.3264 33.7985 80.1047 31.492 80.5039 29.1412C80.8587 26.8791 81.7014 24.9275 82.5442 22.8428C82.9877 21.734 83.9635 19.4275 82.3224 18.8065C81.3466 18.4517 80.2377 18.984 79.3063 19.2945C78.4192 19.6049 77.4877 19.9154 76.6006 20.2703C74.649 21.0243 72.6531 21.3348 70.5684 21.4235C66.0885 21.6453 61.6531 20.6251 57.2176 20.2703C52.8264 19.8711 48.4353 19.5162 44.0442 19.2501C39.6087 19.4719 35.2176 19.8711 30.8264 20.2259C26.391 20.6251 21.9111 21.6009 17.4756 21.3791C15.391 21.3348 13.395 21.0243 11.4434 20.2703C10.5563 19.9154 9.66918 19.6049 8.73773 19.2945C7.80628 18.984 6.69741 18.4517 5.7216 18.8509C4.08047 19.4275 5.05628 21.734 5.45547 22.8428C6.29821 24.9275 7.18531 26.8791 7.54015 29.1412C7.89499 31.492 7.67321 33.7985 7.62886 36.1493C7.5845 38.7662 7.36273 41.3832 7.36273 44.0001C7.36273 46.617 7.5845 49.234 7.62886 51.8509C7.67321 54.2017 7.89499 56.5082 7.49579 58.859C7.14096 61.1211 6.29821 63.0727 5.45547 65.1574C5.01192 66.2662 4.03612 68.5727 5.67725 69.1936C6.65305 69.5485 7.76192 69.0162 8.69337 68.7057C9.58047 68.3953 10.5119 68.0848 11.399 67.7299C13.3506 66.9759 15.3466 66.6654 17.4313 66.5767C21.9111 66.3549 26.3466 67.3751 30.7821 67.7299C35.1732 68.1291 39.5643 68.484 43.9555 68.7501C48.3466 68.5283 52.7377 68.1291 57.1289 67.7299C61.5643 67.3307 66.0442 66.3549 70.4797 66.5767C72.5643 66.6654 74.5603 66.9759 76.5119 67.7299C77.399 68.0848 78.3305 68.3953 79.2176 68.7057C80.149 69.0162 81.2135 69.5485 82.2337 69.1936C83.8748 68.5727 82.899 66.2662 82.4555 65.1574C81.6127 63.0727 80.77 61.1211 80.4151 58.859C80.0603 56.5082 80.2377 54.2017 80.2821 51.8509C80.4152 49.234 80.6369 46.617 80.6369 44.0001Z" stroke="black" stroke-width="2" stroke-miterlimit="10" stroke-linecap="round" stroke-linejoin="round"/>
</svg>

<svg width="88" height="88" viewBox="0 0 88 88" fill="none" xmlns="http://www.w3.org/2000/svg"><path d="M80.637 44c0-2.617-.222-5.234-.266-7.85-.045-2.352-.266-4.658.133-7.009.355-2.262 1.197-4.213 2.04-6.298.444-1.109 1.42-3.416-.222-4.037-.975-.354-2.084.178-3.016.488-.887.31-1.818.621-2.705.976-1.952.754-3.948 1.065-6.033 1.154-4.48.221-8.915-.799-13.35-1.154a439.17 439.17 0 00-13.174-1.02c-4.435.222-8.826.621-13.218.976-4.435.4-8.915 1.375-13.35 1.153-2.085-.044-4.081-.355-6.033-1.109a48.467 48.467 0 00-2.705-.976c-.932-.31-2.04-.842-3.016-.443-1.642.576-.666 2.883-.267 3.992.843 2.084 1.73 4.036 2.085 6.298.355 2.351.133 4.657.089 7.008-.044 2.617-.266 5.234-.266 7.851s.221 5.234.266 7.85c.044 2.352.266 4.658-.133 7.009-.355 2.262-1.198 4.214-2.04 6.298-.444 1.11-1.42 3.416.221 4.037.976.355 2.085-.178 3.016-.488.887-.31 1.819-.621 2.706-.976 1.952-.754 3.948-1.065 6.032-1.153 4.48-.222 8.916.798 13.351 1.153 4.391.4 8.782.754 13.174 1.02 4.39-.222 8.782-.62 13.173-1.02 4.435-.4 8.915-1.375 13.35-1.153 2.085.088 4.081.399 6.033 1.153.887.355 1.819.665 2.706.976.931.31 1.995.843 3.016.488 1.64-.621.665-2.928.222-4.037-.843-2.084-1.686-4.036-2.04-6.298-.356-2.35-.178-4.657-.134-7.008.133-2.617.355-5.234.355-7.85z" stroke="#000" stroke-width="2" stroke-miterlimit="10" stroke-linecap="round" stroke-linejoin="round"/></svg>
